X:1
T: Eric Bullock's 80th Birthday
C:Bruce Shawyer
R:Jig
I:speed 180
K:G
M:6/8
L:1/16
|:B4d2 d2B2G2|c4A2 F2E2D2|B4d2 d2B2G2|c4e2 e6|
B4d2 d2B2G2|c4A2 F2E2D2|G4B2 B2A2G2|A2F2D2 G6|
d4B2 B2d2g2|e4c2 c2e2g2|f4d2 d2f2a2|b4g2 g6|
d4B2 B2d2g2|e4c2 c6|d2e2f2 f2g2a2|g6 g6:|
